Newaita-dark/actions/32/object-flip-horizontal.svg

<svg height="32" viewBox="0 0 32 32" width="32" xmlns="http://www.w3.org/2000/svg"><g fill="#e0e0e0"><path d="m26.460938 8.851562c1.464843 0 2.644531 1.179688 2.644531 2.644532v9.261718c0 1.464844-1.179688 2.644532-2.644531 2.644532h-5.292969c-1.464844 0-2.644531-1.179688-2.644531-2.644532v-9.261718c0-1.464844 1.179687-2.644532 2.644531-2.644532zm0 0"/><path d="m10.585938 8.851562c1.464843 0 2.644531 1.179688 2.644531 2.644532v9.261718c0 1.464844-1.179688 2.644532-2.644531 2.644532h-5.292969c-1.464844 0-2.648438-1.179688-2.648438-2.644532v-9.261718c0-1.464844 1.183594-2.644532 2.648438-2.644532zm-1.324219 2.644532h-2.648438c-.730469 0-1.320312.589844-1.320312 1.324218v6.613282c0 .734375.589843 1.324218 1.320312 1.324218h2.648438c.734375 0 1.324219-.589843 1.324219-1.324218v-6.613282c0-.734374-.589844-1.324218-1.324219-1.324218zm0 0"/><path d="m7.9375 2.894531c.730469 0 1.324219.59375 1.324219 1.324219s-.59375 1.324219-1.324219 1.324219-1.324219-.59375-1.324219-1.324219.59375-1.324219 1.324219-1.324219zm0 0"/><path d="m7.9375 26.710938c.730469 0 1.324219.59375 1.324219 1.324218 0 .730469-.59375 1.320313-1.324219 1.320313s-1.324219-.589844-1.324219-1.320313c0-.730468.59375-1.324218 1.324219-1.324218zm0 0"/><path d="m23.816406 2.894531c.730469 0 1.320313.59375 1.320313 1.324219s-.589844 1.324219-1.320313 1.324219c-.730468 0-1.324218-.59375-1.324218-1.324219s.59375-1.324219 1.324218-1.324219zm0 0"/><path d="m23.816406 26.710938c.730469 0 1.320313.59375 1.320313 1.324218 0 .730469-.589844 1.320313-1.320313 1.320313-.730468 0-1.324218-.589844-1.324218-1.320313 0-.730468.59375-1.324218 1.324218-1.324218zm0 0"/><path d="m15.875 12.15625c.730469 0 1.324219.59375 1.324219 1.324219s-.59375 1.324219-1.324219 1.324219-1.320312-.59375-1.320312-1.324219.589843-1.324219 1.320312-1.324219zm0 0"/><path d="m15.875 17.449219c.730469 0 1.324219.59375 1.324219 1.324219 0 .730468-.59375 1.320312-1.324219 1.320312s-1.320312-.589844-1.320312-1.320312c0-.730469.589843-1.324219 1.320312-1.324219zm0 0"/></g></svg>

<svg xmlns="http://www.w3.org/2000/svg" xmlns:xlink="http://www.w3.org/1999/xlink" width="32px" height="32px" viewBox="0 0 32 32" version="1.1">
<g id="surface1">
     <defs>
  <style id="current-color-scheme" type="text/css">
   .ColorScheme-Text { color:#eeeeee; } .ColorScheme-Highlight { color:#424242; }
  </style>
 </defs>
<path style="fill:currentColor" class="ColorScheme-Text" d="M 26.460938 8.851562 C 27.925781 8.851562 29.105469 10.03125 29.105469 11.496094 L 29.105469 20.757812 C 29.105469 22.222656 27.925781 23.402344 26.460938 23.402344 L 21.167969 23.402344 C 19.703125 23.402344 18.523438 22.222656 18.523438 20.757812 L 18.523438 11.496094 C 18.523438 10.03125 19.703125 8.851562 21.167969 8.851562 Z M 26.460938 8.851562 "/>
     <defs>
  <style id="current-color-scheme" type="text/css">
   .ColorScheme-Text { color:#eeeeee; } .ColorScheme-Highlight { color:#424242; }
  </style>
 </defs>
<path style="fill:currentColor" class="ColorScheme-Text" d="M 10.585938 8.851562 C 12.050781 8.851562 13.230469 10.03125 13.230469 11.496094 L 13.230469 20.757812 C 13.230469 22.222656 12.050781 23.402344 10.585938 23.402344 L 5.292969 23.402344 C 3.828125 23.402344 2.644531 22.222656 2.644531 20.757812 L 2.644531 11.496094 C 2.644531 10.03125 3.828125 8.851562 5.292969 8.851562 Z M 9.261719 11.496094 L 6.613281 11.496094 C 5.882812 11.496094 5.292969 12.085938 5.292969 12.820312 L 5.292969 19.433594 C 5.292969 20.167969 5.882812 20.757812 6.613281 20.757812 L 9.261719 20.757812 C 9.996094 20.757812 10.585938 20.167969 10.585938 19.433594 L 10.585938 12.820312 C 10.585938 12.085938 9.996094 11.496094 9.261719 11.496094 Z M 9.261719 11.496094 "/>
     <defs>
  <style id="current-color-scheme" type="text/css">
   .ColorScheme-Text { color:#eeeeee; } .ColorScheme-Highlight { color:#424242; }
  </style>
 </defs>
<path style="fill:currentColor" class="ColorScheme-Text" d="M 7.9375 2.894531 C 8.667969 2.894531 9.261719 3.488281 9.261719 4.21875 C 9.261719 4.949219 8.667969 5.542969 7.9375 5.542969 C 7.207031 5.542969 6.613281 4.949219 6.613281 4.21875 C 6.613281 3.488281 7.207031 2.894531 7.9375 2.894531 Z M 7.9375 2.894531 "/>
     <defs>
  <style id="current-color-scheme" type="text/css">
   .ColorScheme-Text { color:#eeeeee; } .ColorScheme-Highlight { color:#424242; }
  </style>
 </defs>
<path style="fill:currentColor" class="ColorScheme-Text" d="M 7.9375 26.710938 C 8.667969 26.710938 9.261719 27.304688 9.261719 28.035156 C 9.261719 28.765625 8.667969 29.355469 7.9375 29.355469 C 7.207031 29.355469 6.613281 28.765625 6.613281 28.035156 C 6.613281 27.304688 7.207031 26.710938 7.9375 26.710938 Z M 7.9375 26.710938 "/>
     <defs>
  <style id="current-color-scheme" type="text/css">
   .ColorScheme-Text { color:#eeeeee; } .ColorScheme-Highlight { color:#424242; }
  </style>
 </defs>
<path style="fill:currentColor" class="ColorScheme-Text" d="M 23.816406 2.894531 C 24.546875 2.894531 25.136719 3.488281 25.136719 4.21875 C 25.136719 4.949219 24.546875 5.542969 23.816406 5.542969 C 23.085938 5.542969 22.492188 4.949219 22.492188 4.21875 C 22.492188 3.488281 23.085938 2.894531 23.816406 2.894531 Z M 23.816406 2.894531 "/>
     <defs>
  <style id="current-color-scheme" type="text/css">
   .ColorScheme-Text { color:#eeeeee; } .ColorScheme-Highlight { color:#424242; }
  </style>
 </defs>
<path style="fill:currentColor" class="ColorScheme-Text" d="M 23.816406 26.710938 C 24.546875 26.710938 25.136719 27.304688 25.136719 28.035156 C 25.136719 28.765625 24.546875 29.355469 23.816406 29.355469 C 23.085938 29.355469 22.492188 28.765625 22.492188 28.035156 C 22.492188 27.304688 23.085938 26.710938 23.816406 26.710938 Z M 23.816406 26.710938 "/>
     <defs>
  <style id="current-color-scheme" type="text/css">
   .ColorScheme-Text { color:#eeeeee; } .ColorScheme-Highlight { color:#424242; }
  </style>
 </defs>
<path style="fill:currentColor" class="ColorScheme-Text" d="M 15.875 12.15625 C 16.605469 12.15625 17.199219 12.75 17.199219 13.480469 C 17.199219 14.210938 16.605469 14.804688 15.875 14.804688 C 15.144531 14.804688 14.554688 14.210938 14.554688 13.480469 C 14.554688 12.75 15.144531 12.15625 15.875 12.15625 Z M 15.875 12.15625 "/>
     <defs>
  <style id="current-color-scheme" type="text/css">
   .ColorScheme-Text { color:#eeeeee; } .ColorScheme-Highlight { color:#424242; }
  </style>
 </defs>
<path style="fill:currentColor" class="ColorScheme-Text" d="M 15.875 17.449219 C 16.605469 17.449219 17.199219 18.042969 17.199219 18.773438 C 17.199219 19.503906 16.605469 20.09375 15.875 20.09375 C 15.144531 20.09375 14.554688 19.503906 14.554688 18.773438 C 14.554688 18.042969 15.144531 17.449219 15.875 17.449219 Z M 15.875 17.449219 "/>
</g>
</svg>
